img/qrpatern.svg

<svg width="1012" height="152" viewBox="0 0 1012 152" fill="none" xmlns="http://www.w3.org/2000/svg">
<path d="M440.032 30.6007C440.032 33.8344 440.032 37.1179 440.032 40.6501C426.65 40.6501 413.466 40.6501 399.984 40.6501C399.984 37.5159 399.984 34.4314 399.984 30.8495C396.8 30.8495 393.915 30.8495 390.781 30.8495C390.781 27.5163 390.781 24.6308 390.781 21.4966C403.616 21.4966 416.352 21.4966 429.585 21.4966C429.585 24.2826 429.585 27.1183 429.585 30.7003C433.465 30.7003 436.799 30.7003 440.182 30.7003L440.032 30.6007Z" fill="#FFBC0D"/>
<path d="M440.132 30.7002C440.132 27.765 440.132 24.8298 440.132 21.5463C450.032 21.5463 459.783 21.5463 469.782 21.5463C469.782 27.8645 469.782 34.1827 469.782 40.6998C466.897 40.6998 464.111 40.6998 460.877 40.6998C460.877 37.5656 460.877 34.3817 460.877 30.551C453.614 30.551 446.798 30.551 439.983 30.551C440.032 30.6007 440.132 30.7002 440.132 30.7002Z" fill="#FFBC0D"/>
<path d="M279.442 141.094C272.974 141.094 266.905 141.094 260.487 141.094C260.487 137.811 260.487 134.627 260.487 130.945C263.323 130.945 266.208 130.945 269.392 130.945C269.392 127.413 269.392 124.328 269.392 120.896C272.875 120.896 276.059 120.896 279.442 120.896C279.442 127.662 279.442 134.378 279.442 141.094Z" fill="#FFBC0D"/>
<path d="M8.95497 90.6978C18.7556 90.6978 28.5064 90.6978 38.6553 90.6978C38.6553 93.9813 38.6553 97.1652 38.6553 100.648C29.0039 100.648 19.3028 100.648 9.10422 100.648C9.10422 97.3145 9.10422 93.9315 9.10422 90.5983L8.95497 90.6978Z" fill="#FFBC0D"/>
<path d="M100.146 21.0987C96.2651 21.0987 93.1806 21.0987 89.8474 21.0987C89.8474 14.4323 89.8474 7.91511 89.8474 1.04971C96.0163 1.04971 102.285 1.04971 108.951 1.04971C108.951 4.08442 108.951 7.26838 108.951 10.8006C106.165 10.8006 103.429 10.8006 100.146 10.8006C100.146 14.283 100.146 17.4172 100.146 21.0987Z" fill="#FFBC0D"/>
<path d="M49.3517 10.9001C46.118 10.9001 42.8345 10.9001 39.1033 10.9001C39.1033 14.4323 39.1033 17.6163 39.1033 20.9992C35.8696 20.9992 33.1334 20.9992 29.9992 20.9992C29.9992 14.5318 29.9992 7.91515 29.9992 1C36.1184 1 42.3868 1 49.2024 1C49.2024 4.28345 49.2024 7.66641 49.2024 10.9996L49.3517 10.9001Z" fill="#FFBC0D"/>
<path d="M360.384 51.1971C360.384 54.1323 360.384 57.0675 360.384 60.3012C350.483 60.3012 340.782 60.3012 330.783 60.3012C330.783 57.4655 330.783 54.6298 330.783 51.3463C340.733 51.3463 350.633 51.3463 360.533 51.3463L360.384 51.1971Z" fill="#FFBC0D"/>
<path d="M179.843 60.8485C183.127 60.8485 186.162 60.8485 189.594 60.8485C189.594 67.4651 189.594 74.032 189.594 80.9472C186.46 80.9472 183.276 80.9472 179.843 80.9472C179.843 74.231 179.843 67.6641 179.843 60.8485Z" fill="#FFBC0D"/>
<path d="M149.546 70.9974C155.914 70.9974 162.233 70.9974 168.949 70.9974C168.949 74.2808 168.949 77.4648 168.949 80.8974C162.73 80.8974 156.462 80.8974 149.696 80.8974C149.696 77.5643 149.696 74.1813 149.696 70.8481L149.546 70.9974Z" fill="#FFBC0D"/>
<path d="M49.2518 10.9995C55.6197 10.9995 61.9379 10.9995 68.654 10.9995C68.654 14.2829 68.654 17.4669 68.654 20.9493C62.4354 20.9493 56.1669 20.9493 49.401 20.9493C49.401 17.6161 49.401 14.2332 49.401 10.8503C49.3513 10.9 49.2518 10.9995 49.2518 10.9995Z" fill="#FFBC0D"/>
<path d="M440.032 111.294C446.699 111.294 453.365 111.294 460.33 111.294C460.33 114.279 460.33 117.115 460.33 120.299C453.813 120.299 447.246 120.299 440.132 120.299C440.132 117.264 440.132 114.229 440.132 111.195L440.032 111.294Z" fill="#FFBC0D"/>
<path d="M500.926 111.195C500.926 114.13 500.926 117.065 500.926 120.299C494.16 120.299 487.593 120.299 480.678 120.299C480.678 117.463 480.678 114.627 480.678 111.344C487.493 111.344 494.259 111.344 501.025 111.344L500.926 111.195Z" fill="#FFBC0D"/>
<path d="M309.888 51.2965C309.888 48.0628 309.888 44.8291 309.888 41.2471C313.172 41.2471 316.356 41.2471 319.788 41.2471C319.788 44.3316 319.788 47.5155 319.788 51.1472C316.406 51.1472 313.072 51.1472 309.739 51.1472L309.888 51.2965Z" fill="#FFBC0D"/>
<path d="M390.333 41.3465C390.333 44.6797 390.333 47.6149 390.333 50.8984C387.099 50.8984 383.915 50.8984 380.433 50.8984C380.433 47.8139 380.433 44.6797 380.433 41.3465C383.766 41.3465 387 41.3465 390.333 41.3465Z" fill="#FFBC0D"/>
<path d="M149.646 70.8977C146.412 70.8977 143.178 70.8977 139.596 70.8977C139.596 67.5645 139.596 64.4303 139.596 60.9479C142.681 60.9479 145.865 60.9479 149.496 60.9479C149.496 64.3308 149.496 67.664 149.496 71.047C149.546 70.9972 149.646 70.8977 149.646 70.8977Z" fill="#FFBC0D"/>
<path d="M59.5501 90.5486C59.5501 93.7823 59.5501 97.016 59.5501 100.598C56.2667 100.598 53.0827 100.598 49.65 100.598C49.65 97.5135 49.65 94.3296 49.65 90.6979C53.033 90.6979 56.3662 90.6979 59.6994 90.6979L59.5501 90.5486Z" fill="#FFBC0D"/>
<path d="M440.181 111.195C436.948 111.195 433.714 111.195 430.132 111.195C430.132 107.861 430.132 104.727 430.132 101.245C433.216 101.245 436.4 101.245 440.032 101.245C440.032 104.628 440.032 107.961 440.032 111.344C440.032 111.294 440.181 111.195 440.181 111.195Z" fill="#FFBC0D"/>
<path d="M501.075 111.294C501.075 108.06 501.075 104.827 501.075 101.245C504.408 101.245 507.542 101.245 511.025 101.245C511.025 104.329 511.025 107.513 511.025 111.145C507.642 111.145 504.308 111.145 500.926 111.145C500.926 111.195 501.075 111.294 501.075 111.294Z" fill="#FFBC0D"/>
<path d="M309.789 51.1473C309.789 54.0825 309.789 57.0178 309.789 60.2515C306.456 60.2515 303.322 60.2515 299.839 60.2515C299.839 57.4655 299.839 54.6298 299.839 51.2468C303.222 51.2468 306.555 51.2468 309.938 51.2468C309.888 51.2966 309.789 51.1473 309.789 51.1473Z" fill="#FFBC0D"/>
<path d="M360.483 51.3462C360.483 48.1125 360.483 44.8788 360.483 41.2968C363.468 41.2968 366.354 41.2968 369.488 41.2968C369.488 44.3813 369.488 47.5652 369.488 51.1969C366.453 51.1969 363.369 51.1969 360.334 51.1969C360.384 51.1969 360.483 51.3462 360.483 51.3462Z" fill="#FFBC0D"/>
<path d="M9.10412 90.5488C6.16891 90.5488 3.23371 90.5488 0 90.5488C0 87.5639 0 84.7282 0 81.5442C2.78596 81.5442 5.62167 81.5442 9.00463 81.5442C9.00463 84.5789 9.00463 87.6634 9.00463 90.6981C8.95488 90.6981 9.10412 90.5488 9.10412 90.5488Z" fill="#FFBC0D"/>
<path d="M59.6992 90.6981C59.6992 87.7628 59.6992 84.8276 59.6992 81.5939C62.6842 81.5939 65.5696 81.5939 68.7038 81.5939C68.7038 84.3799 68.7038 87.2156 68.7038 90.5985C65.6691 90.5985 62.5847 90.5985 59.55 90.5985C59.55 90.5488 59.6992 90.6981 59.6992 90.6981Z" fill="#FFBC0D"/>
<path d="M941.008 41.048C941.008 44.2817 941.008 47.5652 941.008 51.0974C927.625 51.0974 914.442 51.0974 900.959 51.0974C900.959 47.9632 900.959 44.8787 900.959 41.2968C897.776 41.2968 894.89 41.2968 891.756 41.2968C891.756 37.9636 891.756 35.0781 891.756 31.9439C904.591 31.9439 917.327 31.9439 930.56 31.9439C930.56 34.7299 930.56 37.5656 930.56 41.1475C934.441 41.1475 937.774 41.1475 941.157 41.1475L941.008 41.048Z" fill="#FFBC0D"/>
<path d="M941.157 41.1975C941.157 38.2623 941.157 35.3271 941.157 32.0436C951.057 32.0436 960.808 32.0436 970.808 32.0436C970.808 38.3618 970.808 44.6799 970.808 51.1971C967.922 51.1971 965.136 51.1971 961.902 51.1971C961.902 48.0629 961.902 44.8789 961.902 41.0482C954.639 41.0482 947.823 41.0482 941.008 41.0482C941.008 41.0482 941.157 41.1975 941.157 41.1975Z" fill="#FFBC0D"/>
<path d="M780.467 151.591C773.999 151.591 767.93 151.591 761.512 151.591C761.512 148.308 761.512 145.124 761.512 141.442C764.348 141.442 767.233 141.442 770.417 141.442C770.417 137.91 770.417 134.825 770.417 131.393C773.9 131.393 777.084 131.393 780.467 131.393C780.467 138.159 780.467 144.875 780.467 151.591Z" fill="#FFBC0D"/>
<path d="M509.98 101.195C519.781 101.195 529.531 101.195 539.68 101.195C539.68 104.479 539.68 107.662 539.68 111.145C530.029 111.145 520.328 111.145 510.129 111.145C510.129 107.812 510.129 104.429 510.129 101.096L509.98 101.195Z" fill="#FFBC0D"/>
<path d="M601.17 31.546C597.29 31.546 594.205 31.546 590.872 31.546C590.872 24.8795 590.872 18.3624 590.872 11.497C597.041 11.497 603.309 11.497 609.976 11.497C609.976 14.5317 609.976 17.7157 609.976 21.2479C607.19 21.2479 604.453 21.2479 601.17 21.2479C601.17 24.7303 601.17 27.9143 601.17 31.546Z" fill="#FFBC0D"/>
<path d="M550.377 21.3474C547.143 21.3474 543.859 21.3474 540.128 21.3474C540.128 24.8796 540.128 28.0635 540.128 31.4465C536.895 31.4465 534.158 31.4465 531.024 31.4465C531.024 24.9791 531.024 18.3624 531.024 11.4473C537.143 11.4473 543.412 11.4473 550.227 11.4473C550.227 14.7307 550.227 18.1137 550.227 21.4469L550.377 21.3474Z" fill="#FFBC0D"/>
<path d="M861.359 61.694C861.359 64.6292 861.359 67.5645 861.359 70.7982C851.459 70.7982 841.758 70.7982 831.759 70.7982C831.759 67.9624 831.759 65.1267 831.759 61.8433C841.708 61.8433 851.608 61.8433 861.509 61.8433L861.359 61.694Z" fill="#FFBC0D"/>
<path d="M680.819 71.3455C684.103 71.3455 687.137 71.3455 690.57 71.3455C690.57 77.9621 690.57 84.529 690.57 91.4442C687.436 91.4442 684.252 91.4442 680.819 91.4442C680.819 84.728 680.819 78.1114 680.819 71.3455Z" fill="#FFBC0D"/>
<path d="M650.521 81.4944C656.889 81.4944 663.207 81.4944 669.923 81.4944C669.923 84.7778 669.923 87.9618 669.923 91.3945C663.705 91.3945 657.436 91.3945 650.67 91.3945C650.67 88.0613 650.67 84.6783 650.67 81.3451L650.521 81.4944Z" fill="#FFBC0D"/>
<path d="M550.227 21.4968C556.595 21.4968 562.913 21.4968 569.63 21.4968C569.63 24.7802 569.63 27.9642 569.63 31.4466C563.411 31.4466 557.142 31.4466 550.376 31.4466C550.376 28.1134 550.376 24.7305 550.376 21.3475C550.376 21.3475 550.227 21.4968 550.227 21.4968Z" fill="#FFBC0D"/>
<path d="M941.057 121.791C947.724 121.791 954.39 121.791 961.355 121.791C961.355 124.776 961.355 127.612 961.355 130.796C954.838 130.796 948.271 130.796 941.157 130.796C941.157 127.761 941.157 124.726 941.157 121.692L941.057 121.791Z" fill="#FFBC0D"/>
<path d="M1001.95 121.642C1001.95 124.577 1001.95 127.512 1001.95 130.746C995.184 130.746 988.617 130.746 981.702 130.746C981.702 127.91 981.702 125.075 981.702 121.791C988.518 121.791 995.284 121.791 1002.05 121.791L1001.95 121.642Z" fill="#FFBC0D"/>
<path d="M810.913 61.7935C810.913 58.5598 810.913 55.3261 810.913 51.7441C814.197 51.7441 817.381 51.7441 820.813 51.7441C820.813 54.8286 820.813 58.0125 820.813 61.6442C817.43 61.6442 814.097 61.6442 810.764 61.6442L810.913 61.7935Z" fill="#FFBC0D"/>
<path d="M891.308 51.7938C891.308 55.127 891.308 58.0622 891.308 61.3457C888.074 61.3457 884.89 61.3457 881.408 61.3457C881.408 58.2612 881.408 55.127 881.408 51.7938C884.741 51.7938 888.025 51.7938 891.308 51.7938Z" fill="#FFBC0D"/>
<path d="M650.67 81.345C647.437 81.345 644.203 81.345 640.621 81.345C640.621 78.0118 640.621 74.8776 640.621 71.3952C643.706 71.3952 646.89 71.3952 650.521 71.3952C650.521 74.7781 650.521 78.1113 650.521 81.4943L650.67 81.345Z" fill="#FFBC0D"/>
<path d="M560.525 101.046C560.525 104.279 560.525 107.513 560.525 111.095C557.241 111.095 554.057 111.095 550.625 111.095C550.625 108.01 550.625 104.827 550.625 101.195C554.008 101.195 557.341 101.195 560.674 101.195L560.525 101.046Z" fill="#FFBC0D"/>
<path d="M941.157 121.642C937.923 121.642 934.69 121.642 931.108 121.642C931.108 118.309 931.108 115.174 931.108 111.692C934.192 111.692 937.376 111.692 941.008 111.692C941.008 115.075 941.008 118.408 941.008 121.791C941.057 121.791 941.157 121.642 941.157 121.642Z" fill="#FFBC0D"/>
<path d="M1002.05 121.791C1002.05 118.557 1002.05 115.324 1002.05 111.742C1005.38 111.742 1008.52 111.742 1012 111.742C1012 114.826 1012 118.01 1012 121.642C1008.62 121.642 1005.28 121.642 1001.9 121.642C1001.95 121.642 1002.05 121.791 1002.05 121.791Z" fill="#FFBC0D"/>
<path d="M810.764 61.6443C810.764 64.5795 810.764 67.5147 810.764 70.7485C807.431 70.7485 804.296 70.7485 800.814 70.7485C800.814 67.9625 800.814 65.1268 800.814 61.7438C804.197 61.7438 807.53 61.7438 810.913 61.7438C810.913 61.7936 810.764 61.6443 810.764 61.6443Z" fill="#FFBC0D"/>
<path d="M861.508 61.8432C861.508 58.6095 861.508 55.3758 861.508 51.7938C864.493 51.7938 867.379 51.7938 870.513 51.7938C870.513 54.8783 870.513 58.0622 870.513 61.6939C867.478 61.6939 864.394 61.6939 861.359 61.6939C861.359 61.6939 861.508 61.8432 861.508 61.8432Z" fill="#FFBC0D"/>
<path d="M510.129 101.046C507.194 101.046 504.259 101.046 501.025 101.046C501.025 98.0609 501.025 95.2252 501.025 92.0412C503.811 92.0412 506.647 92.0412 510.03 92.0412C510.03 95.0759 510.03 98.1604 510.03 101.195C509.98 101.195 510.129 101.046 510.129 101.046Z" fill="#FFBC0D"/>
<path d="M560.674 101.195C560.674 98.2598 560.674 95.3246 560.674 92.0909C563.659 92.0909 566.545 92.0909 569.679 92.0909C569.679 94.8769 569.679 97.7126 569.679 101.096C566.644 101.096 563.56 101.096 560.525 101.096C560.525 101.046 560.674 101.195 560.674 101.195Z" fill="#FFBC0D"/>
</svg>

<svg width="1012" height="152" fill="none" xmlns="http://www.w3.org/2000/svg"><path d="M440.032 30.6v10.05h-40.048v-9.8h-9.203v-9.353h38.804V30.7h10.597l-.15-.1z" fill="#FFBC0D"/><path d="M440.132 30.7v-9.154h29.65V40.7h-8.905V30.55h-20.894l.149.15zm-160.69 110.394h-18.955v-10.149h8.905v-10.049h10.05v20.198zM8.955 90.698h29.7v9.95H9.105v-10.05l-.15.1zm91.191-69.599H89.847V1.049h19.104v9.752h-8.805v10.298zM49.352 10.9H39.103V21H30V1h19.203v10l.15-.1zm311.032 40.297v9.104h-29.601v-8.955h29.75l-.149-.149zm-180.541 9.652h9.751v20.098h-9.751V60.848zm-30.297 10.148h19.403v9.9h-19.253V70.848l-.15.15z" fill="#FFBC0D"/><path d="M49.252 11h19.402v9.95H49.401v-10.1l-.15.15zm390.78 100.294h20.298v9.005h-20.198v-9.104l-.1.099zm60.894-.099v9.104h-20.248v-8.955h20.347l-.099-.149zM309.888 51.297v-10.05h9.9v9.9h-10.049l.149.15zm80.445-9.951v9.552h-9.9v-9.552h9.9zM149.646 70.898h-10.05v-9.95h9.9v10.099l.15-.15zM59.55 90.549v10.049h-9.9v-9.9H59.7l-.15-.15z" fill="#FFBC0D"/><path d="M440.181 111.195h-10.049v-9.95h9.9v10.099c0-.05.149-.149.149-.149zm60.894.099v-10.049h9.95v9.9h-10.099c0 .05.149.149.149.149zM309.789 51.147v9.105h-9.95v-9.005h10.099c-.05.05-.149-.1-.149-.1zm50.694.199v-10.05h9.005v9.9h-9.154c.05 0 .149.15.149.15zM9.104 90.549H0v-9.005h9.005v9.154c-.05 0 .1-.15.1-.15zm50.596.149v-9.104h9.004v9.005H59.55c0-.05.15.1.15.1zm881.308-49.65v10.05h-40.049v-9.801h-9.203v-9.353h38.804v9.204h10.597l-.149-.1z" fill="#FFBC0D"/><path d="M941.157 41.197v-9.153h29.651v19.153h-8.906V41.048h-20.894l.149.15zm-160.69 110.394h-18.955v-10.149h8.905v-10.049h10.05v20.198zM509.98 101.195h29.7v9.95h-29.551v-10.049l-.149.099zm91.19-69.649h-10.298V11.497h19.104v9.75h-8.806v10.299zm-50.793-10.199h-10.249v10.1h-9.104v-20h19.203v10l.15-.1zm310.982 40.347v9.104h-29.6v-8.955h29.75l-.15-.149zm-180.54 9.652h9.751v20.098h-9.751V71.345zm-30.298 10.148h19.402v9.9H650.67V81.345l-.149.15z" fill="#FFBC0D"/><path d="M550.227 21.497h19.403v9.95h-19.254v-10.1l-.149.15zm390.83 100.294h20.298v9.005h-20.198v-9.104l-.1.099zm60.893-.149v9.104h-20.248v-8.955h20.348l-.1-.149zM810.913 61.794v-10.05h9.9v9.9h-10.049l.149.15zm80.395-10v9.552h-9.9v-9.552h9.9zM650.67 81.345h-10.049v-9.95h9.9v10.1l.149-.15zm-90.145 19.701v10.049h-9.9v-9.9h10.049l-.149-.149zm380.632 20.596h-10.049v-9.95h9.9v10.099c.049 0 .149-.149.149-.149z" fill="#FFBC0D"/><path d="M1002.05 121.791v-10.049h9.95v9.9h-10.1c.05 0 .15.149.15.149zM810.764 61.644v9.105h-9.95v-9.005h10.099c0 .05-.149-.1-.149-.1zm50.744.199v-10.05h9.005v9.9h-9.154l.149.15zm-351.379 39.203h-9.104v-9.005h9.005v9.154c-.05 0 .099-.149.099-.149zm50.545.149v-9.104h9.005v9.005h-9.154c0-.05.149.099.149.099z" fill="#FFBC0D"/></svg>
